findly-builder/apps/searchassist/src/assets/images/markup/numbered-list.svg

<?xml version="1.0" encoding="UTF-8"?>
<svg width="12px" height="12px" viewBox="0 0 12 12" version="1.1" xmlns="http://www.w3.org/2000/svg" xmlns:xlink="http://www.w3.org/1999/xlink">
    <title>icons8-numbered-list</title>
    <g id="Page-1" stroke="none" stroke-width="1" fill="none" fill-rule="evenodd">
        <g id="Custom-Preset-Copy" transform="translate(-683.000000, -95.000000)" fill="#FFFFFF" fill-rule="nonzero">
            <g id="icons8-numbered-list" transform="translate(683.000000, 95.000000)">
                <path d="M0.964365418,0 L0.143762776,0.543088045 L0.143762776,1.23011477 L0.9213413,0.719693939 L0.964365418,0.719693939 L0.964365418,3.13602721 L1.78391849,3.13602721 L1.78391849,0 L0.964365418,0 Z M3.9330156,1.54657598 C3.73888336,1.54351339 3.55944208,1.64253528 3.46185131,1.80587003 C3.36321098,1.96818374 3.36321098,2.17031063 3.46185131,2.33262434 C3.55944208,2.49595909 3.73888336,2.59498098 3.9330156,2.59191838 L11.4548555,2.59191838 C11.6489877,2.59498098 11.828429,2.49595909 11.9260197,2.33262434 C12.0246601,2.17031063 12.0246601,1.96818374 11.9260197,1.80587003 C11.828429,1.64253528 11.6489877,1.54351339 11.4548555,1.54657598 L3.9330156,1.54657598 Z M1.24664422,4.68260319 C0.518385593,4.68260319 0.0304314836,5.09298162 0.0304314836,5.70038278 L0.0304314836,5.71263289 L0.761837999,5.71263289 L0.761837999,5.69834123 C0.761837999,5.44619314 0.948624894,5.26856673 1.21831133,5.26856673 C1.47750426,5.26856673 1.64645177,5.41863034 1.64645177,5.64321562 C1.64645177,5.82288385 1.52892302,5.97703108 1.0682525,6.39251392 L0.0766034917,7.30004256 L0.0766034917,7.81863039 L2.46285695,7.81863039 L2.46285695,7.21429182 L1.13960897,7.21429182 L1.13960897,7.17345813 L1.65799484,6.70999564 C2.21415753,6.22713735 2.41878354,5.92700988 2.41878354,5.58809027 C2.41878354,5.04806482 1.94971811,4.68260319 1.24664422,4.68260319 Z M3.9330156,5.72794559 C3.73888336,5.724883 3.55944208,5.82390489 3.46185131,5.98723964 C3.36321098,6.14955335 3.36321098,6.35168023 3.46185131,6.51399394 C3.55944208,6.67732869 3.73888336,6.77635058 3.9330156,6.77328799 L11.4548555,6.77328799 C11.6489877,6.77635058 11.828429,6.67732869 11.9260197,6.51399394 C12.0246601,6.35168023 12.0246601,6.14955335 11.9260197,5.98723964 C11.828429,5.82390489 11.6489877,5.724883 11.4548555,5.72794559 L3.9330156,5.72794559 Z M1.23615071,8.86397279 C0.526780503,8.86397279 0.0682085812,9.23453857 0.0577150773,9.81641849 L0.762887564,9.81641849 C0.771282475,9.58366647 0.951773052,9.42849846 1.21831133,9.42849846 C1.49009662,9.42849846 1.65799484,9.56324963 1.65799484,9.77966817 C1.65799484,9.99608672 1.48589917,10.1379838 1.22565694,10.1379838 L0.849984829,10.1379838 L0.849984829,10.6596343 L1.22565694,10.6596343 C1.52262697,10.6596343 1.70206798,10.8005104 1.70206798,11.029179 C1.70206798,11.2517227 1.5121332,11.4038282 1.23615071,11.4038282 C0.94127928,11.4038282 0.752393792,11.2639728 0.741900288,11.0373458 L0,11.0373458 C0.0272835936,11.6202467 0.508941386,12 1.22250878,12 C1.97070512,12 2.49223914,11.6243301 2.49223914,11.0863462 C2.49223914,10.7035303 2.223602,10.4330072 1.80175761,10.3901319 L1.80175761,10.350319 C2.14489965,10.2890685 2.37995714,10.0185454 2.37995714,9.67656318 C2.37995714,9.19574644 1.91403961,8.86397279 1.23615071,8.86397279 Z M3.9330156,9.9093152 C3.73888336,9.9062526 3.55944208,10.0052745 3.46185131,10.1686092 C3.36321098,10.330923 3.36321098,10.5330498 3.46185131,10.6953636 C3.55944208,10.8586983 3.73888336,10.9577202 3.9330156,10.9546576 L11.4548555,10.9546576 C11.6489877,10.9577202 11.828429,10.8586983 11.9260197,10.6953636 C12.0246601,10.5330498 12.0246601,10.330923 11.9260197,10.1686092 C11.828429,10.0052745 11.6489877,9.9062526 11.4548555,9.9093152 L3.9330156,9.9093152 Z" id="Shape"></path>
            </g>
        </g>
    </g>
</svg>

<svg width="12" height="12" xmlns="http://www.w3.org/2000/svg"><path d="m.964 0-.82.543v.687L.92.72h.043v2.416h.82V0h-.82Zm2.969 1.547a.537.537 0 0 0-.471.259.506.506 0 0 0 0 .527.537.537 0 0 0 .471.259h7.522a.537.537 0 0 0 .471-.26.506.506 0 0 0 0-.526.537.537 0 0 0-.471-.26H3.933ZM1.247 4.683C.518 4.683.03 5.093.03 5.7v.013h.732v-.015c0-.252.187-.43.456-.43.26 0 .428.15.428.375 0 .18-.117.334-.578.75L.077 7.3v.519h2.386v-.605H1.14v-.04l.518-.464c.556-.483.76-.783.76-1.122 0-.54-.468-.905-1.171-.905Zm2.686 1.045a.537.537 0 0 0-.471.26.506.506 0 0 0 0 .526.537.537 0 0 0 .471.26h7.522a.537.537 0 0 0 .471-.26.506.506 0 0 0 0-.527.537.537 0 0 0-.471-.26H3.933ZM1.236 8.864c-.71 0-1.168.37-1.178.952h.705c.008-.232.189-.388.455-.388.272 0 .44.135.44.352 0 .216-.172.358-.432.358H.85v.522h.376c.297 0 .476.14.476.37 0 .222-.19.374-.466.374-.295 0-.484-.14-.494-.367H0c.027.583.509.963 1.223.963.748 0 1.27-.376 1.27-.914 0-.382-.27-.653-.691-.696v-.04a.676.676 0 0 0 .578-.673c0-.481-.466-.813-1.144-.813Zm2.697 1.045a.537.537 0 0 0-.471.26.506.506 0 0 0 0 .526.537.537 0 0 0 .471.26h7.522a.537.537 0 0 0 .471-.26.506.506 0 0 0 0-.526.537.537 0 0 0-.471-.26H3.933Z" fill="#FFF"/></svg>
